dist/svg/static/hotline-large.svg

<svg xmlns="http://www.w3.org/2000/svg" width="48" height="48" viewBox="0 0 48 48"><g fill="none" stroke="currentColor" stroke-miterlimit="10"><path d="M9.502 17.5H12.5c1.1 0 2 .9 2 2v13.1c0 1.1-.9 1.9-2 1.9H9.96"/><path d="M40.49 17.5H37.5c-1.1 0-2 .9-2 2v13.1c0 1.1.9 1.9 2 1.9h3v-19c0-5.5-4.5-10-10-10h-11c-5.5 0-10 4.5-10 10v16c0 5.5 4.5 10 10 10h.994"/><path d="M20.5 39.5h10v4h-10zM9.54 32.467C7.258 32.137 5.5 29.376 5.5 26c0-3.352 1.734-6.097 3.99-6.46M40.491 32.462c2.266-.35 4.009-3.101 4.009-6.462s-1.743-6.112-4.009-6.462"/></g></svg>

<?xml version="1.0" encoding="UTF-8" standalone="no"?>
<svg width="48px" height="48px" viewBox="0 0 48 48" version="1.1" xmlns="http://www.w3.org/2000/svg" xmlns:xlink="http://www.w3.org/1999/xlink">
    <!-- Generator: sketchtool 46.2 (44496) - http://www.bohemiancoding.com/sketch -->
    <title>hotline-large</title>
    <desc>Created with sketchtool.</desc>
    <defs></defs>
    <g id="icons-published" stroke="none" stroke-width="1" fill="none" fill-rule="evenodd">
        <g id="briefing" transform="translate(-2592.000000, -794.000000)"></g>
        <g id="hotline-large" stroke="#000000">
            <path d="M9.5,17.5 L12.5,17.5 C13.6,17.5 14.5,18.4 14.5,19.5 L14.5,32.6 C14.5,33.7 13.6,34.5 12.5,34.5 L10,34.5" id="Shape"></path>
            <path d="M40.5,17.5 L37.5,17.5 C36.4,17.5 35.5,18.4 35.5,19.5 L35.5,32.6 C35.5,33.7 36.4,34.5 37.5,34.5 L40.5,34.5 L40.5,15.5 C40.5,10 36,5.5 30.5,5.5 L19.5,5.5 C14,5.5 9.5,10 9.5,15.5 L9.5,31.5 C9.5,37 14,41.5 19.5,41.5 L20.5,41.5" id="Shape"></path>
            <polygon id="Shape" points="20.5 39.5 30.5 39.5 30.5 43.5 20.5 43.5"></polygon>
            <path d="M9.5,32.5 C7.2,32.2 5.5,29.4 5.5,26 C5.5,22.6 7.2,19.9 9.5,19.5" id="Path"></path>
            <path d="M40.5,32.5 C42.8,32.2 44.5,29.4 44.5,26 C44.5,22.6 42.8,19.9 40.5,19.5" id="Path"></path>
        </g>
    </g>
</svg>
